X:1
T:Sweet Hour, LMD
T:William Batchelder Bradbury, 1861
T:Sweet Hour, LMD
T:Public Domain
C:William Batchelder Bradbury, 1861
Z:Public Domain
%%score ( 1 2 ) ( 3 4 )
L:1/8
M:6/8
K:D
V:1 treble 
V:2 treble 
V:3 bass 
V:4 bass 
V:1
 D | [DF]2 [EG] [FA]2 [FA] | [GB]2 [Ac] [Bd]2 [GB] | [FA]2 [DF] ([DF][CE])D | [CE]2 [DF] [CE]2 D | %5
 [DF]2 [EG] [FA]2 [FA] | [GB]2 [Ac] [Bd]2 [GB] | [FA]2 [DF] ([DF][CE])D | [DF]2 [CE] D3 [FA] | %9
 [Fd]2 [Gc] [Ad]2 [GB] | [FA]2 [DF] [FA]2 [DA] | [Fd]2 [Gc] [Ad]2 [GB] | [FA]2 [DF] [CE]2 D | %13
 [DF]2 [EG] [FA]2 [FA] | [GB]2 [Ac] [Bd]2 [GB] | [FA]2 [DF] ([DF][CE])D | [DF]2 [CE] D2 |] %17
V:2
 D | x6 | x6 | x5 D | x5 D | x6 | x6 | x5 D | x3 D3 x | x6 | x6 | x6 | x5 D | x6 | x6 | x5 D | %16
 x3 D2 |] %17
V:3
 [D,F,] | [D,A,]2 [D,A,] [D,D]2 [D,D] | [G,D]2 [G,D] [G,D]2 [G,D] | [D,D]2 [D,A,] (A,G,)[D,F,] | %4
 [A,,A,]2 [A,,A,] [A,,A,]2 [D,F,] | [D,A,]2 [D,A,] [D,D]2 [D,D] | [G,D]2 [G,D] [G,D]2 [G,D] | %7
 [D,D]2 [D,A,] (A,G,)[D,F,] | [A,,A,]2 [A,,G,] [D,F,]3 [D,A,] | [D,A,]2 [E,A,] [F,A,]2 [G,D] | %10
 [D,D]2 [D,A,] [D,D]2 [D,F,] | [D,A,]2 [E,A,] [F,A,]2 [G,D] | [D,D]2 [D,A,] [A,,A,]2 [D,F,] | %13
 [D,A,]2 [D,A,] [D,D]2 [D,D] | [G,D]2 [G,D] [G,D]2 [G,D] | [D,D]2 [D,A,] (A,G,)[D,F,] | %16
 [A,,A,]2 [A,,G,] [D,F,]2 |] %17
V:4
 x | x6 | x6 | x3 D,2 x | x6 | x6 | x6 | x3 D,2 x | x7 | x6 | x6 | x6 | x6 | x6 | x6 | x3 D,2 x | %16
 x5 |] %17

